X: 58
T: The Braes of Mar
O:Scotland
B:Keith Norman MacDonald : "The Skye collection of the best reels & strathspeys extant" : 1887
Z:Ralph Palmer
R:Strathspey
M:C
L:1/8
K:D
(A/G/) |\
(F<A) A>B {/c}d>eTf>e | {/c}(d<B)TB>A B>d TB(A/G/) |\
(F<A)A>B {/c}d>ef>d | Te>d{/f}g>f e2 {/c}d :: A/G/ | F<AA>D (FD) {/B}A(G/F/) |
{/F}(G<B) B>E {/F}G<E TB(A/G/) |\
[1(F<A) A>D FD {/B}A(G/F/) | (3GBG (3FAF TE2 D :|\
[2 (F<A)A>G F>A {/c}d(e/4f/4g/) | f>d{/f}g>f Te2 {/c}d |]


